src/_assets/activityfeed/commentdark.svg

<svg width="14" height="14" viewBox="0 0 14 14" fill="none" xmlns="http://www.w3.org/2000/svg">
<path d="M0 10.1535V0.756108C0 0.588084 0.0758334 0.42006 0.2275 0.252036C0.379167 0.0840119 0.536667 0 0.7 0H9.7825C9.9575 0 10.1208 0.0810116 10.2725 0.243035C10.4242 0.405058 10.5 0.576082 10.5 0.756108V7.16502C10.5 7.33305 10.4242 7.50107 10.2725 7.6691C10.1208 7.83712 9.9575 7.92113 9.7825 7.92113H2.8L0.455 10.3335C0.373333 10.4175 0.277083 10.4385 0.16625 10.3965C0.0554166 10.3545 0 10.2735 0 10.1535ZM3.5175 11.5216C3.35417 11.5216 3.19375 11.4376 3.03625 11.2696C2.87875 11.1016 2.8 10.9336 2.8 10.7655V9.00129H11.55V2.88041H13.3C13.4633 2.88041 13.6208 2.96442 13.7725 3.13245C13.9242 3.30047 14 3.4745 14 3.65452V13.736C14 13.856 13.9446 13.937 13.8338 13.979C13.7229 14.021 13.6267 14 13.545 13.916L11.2175 11.5216H3.5175ZM9.45 1.08015H1.05V6.84098H9.45V1.08015Z" fill="#FF4098"/>
</svg>

<svg xmlns="http://www.w3.org/2000/svg" width="14" height="14" fill="none"><path fill="#FF4098" d="M0 10.154V.755Q0 .504.228.252.455 0 .7 0h9.083q.262 0 .49.243t.227.513v6.409q0 .252-.227.504-.228.252-.49.252H2.8L.455 10.334a.25.25 0 0 1-.289.063.24.24 0 0 1-.166-.244m3.518 1.368q-.245 0-.482-.252-.236-.252-.236-.505V9.002h8.75v-6.12h1.75q.244 0 .473.251.227.252.227.523v10.081q0 .18-.166.243a.25.25 0 0 1-.289-.063l-2.328-2.394zM9.45 1.08h-8.4v5.761h8.4z"/></svg>
